X: 10786
T: Drag Her Round The Road
R: reel
M: 4/4
K: Eminor
GA|BE{F}ED E{F}EDE|GEDB, D/E/D B,D|GE{F}ED E{F}EDE|G2 BG ABGA|
BE ~E2 B,E ~E2|GEDB, D/E/D B,D|GE{F}ED E{F}EDE|G2 BG AD||
EF|G2 {A}GF GBdc|B2 {c}BA BcBA|G{A}GGF GBdc|A/B/A GB A2 D/E/F|
G2 {A}GF GBdc|B/c/B Ac ~B3 A|G2 GF GBdc|A/B/A GB A2||

